src/assets/filled/Import3.svg

<svg width="24" height="24" viewBox="0 0 24 24"  xmlns="http://www.w3.org/2000/svg">
<path d="M21.14 9.8999H12.68V13.5699L14.25 11.9999C14.54 11.7099 15.02 11.7099 15.31 11.9999C15.6 12.2899 15.6 12.7699 15.31 13.0599L12.46 15.8999C12.17 16.1899 11.69 16.1899 11.4 15.8999L8.55 13.0599C8.4 12.9099 8.33 12.7199 8.33 12.5299C8.33 12.3399 8.41 12.1499 8.56 11.9999C8.85 11.7099 9.33 11.7099 9.62 11.9999L11.18 13.5599V9.8999H2.86C2.38 9.8999 2 10.2799 2 10.7599C2 16.6499 6.11 20.7599 12 20.7599C17.89 20.7599 22 16.6499 22 10.7599C22 10.2799 21.62 9.8999 21.14 9.8999Z" />
<path d="M12.6799 3.98999C12.6799 3.57999 12.3399 3.23999 11.9299 3.23999C11.5199 3.23999 11.1799 3.57999 11.1799 3.98999V9.88999H12.6799V3.98999Z" />
</svg>

<?xml version="1.0" encoding="UTF-8"?>
<svg width="24" height="24" viewBox="0 0 24 24" xmlns="http://www.w3.org/2000/svg">
 <path d="m21.14 9.8999h-8.46v3.67l1.57-1.57c0.29-0.29 0.77-0.29 1.06 0s0.29 0.77 0 1.06l-2.85 2.84c-0.29 0.29-0.77 0.29-1.06 0l-2.85-2.84c-0.15-0.15-0.22-0.34-0.22-0.53s0.08-0.38 0.23-0.53c0.29-0.29 0.77-0.29 1.06 0l1.56 1.56v-3.66h-8.32c-0.48 0-0.86 0.38-0.86 0.86 0 5.89 4.11 10 10 10s10-4.11 10-10c0-0.48-0.38-0.86-0.86-0.86z"/>
 <path d="m12.68 3.99c0-0.41-0.34-0.75-0.75-0.75s-0.75 0.34-0.75 0.75v5.9h1.5v-5.9z"/>
</svg>
